X:2543
T:Cantar de Ronda (CT 060)
R:Ronda
C:Tradicional
S:Música Tradicional Asturiana, (C) Tello & Tito. Asturies, 2001.
S:http://pagina.de/MusTradAst <telloytito@asturies.org>
N:Canción de Ronda, transcrita en Grau.
O:Grau
A:Asturies
Z:Cancioneru de Torner 060
M:6/8
L:1/8
Q:3/8=80
W:¡Señor San Pedro!
W:Soi de la Villa de Grau,
W:yo la mio patria nun la niego.
K:C
GBd|(d-d (3e/2d/2c/2 B3)|eee ed3/2B/2|
c2-c c3|Add c2e/2d/2|B2B- B3-|B2 z||


